dist/img/svg/arrow_long.svg

<svg width="27" height="16" viewBox="0 0 27 16" fill="none" xmlns="http://www.w3.org/2000/svg"><path d="M8.21402 1.76147C8.37861 1.58162 8.36791 1.27539 8.194 1.1037C8.01944 0.931333 7.72213 0.938612 7.54843 1.12399L2.11463 7.02749C1.96839 7.20518 1.95533 7.46529 2.11463 7.66525L7.5511 13.5716C7.73319 13.7566 8.01341 13.7619 8.19268 13.5903C8.3695 13.4212 8.37947 13.1119 8.21381 12.9311L3.50249 7.8105H25.5461C25.7968 7.8105 26 7.60271 26 7.34637C26 7.09003 25.7968 6.88223 25.5461 6.88223H3.50249L8.21402 1.76147Z" fill="currentColor" stroke="currentColor"></path></svg>

<svg width="27" height="16" viewBox="0 0 27 16" fill="none" xmlns="http://www.w3.org/2000/svg"><path d="M8.214 1.761a.49.49 0 00-.02-.657.456.456 0 00-.646.02L2.115 7.027a.5.5 0 000 .638l5.436 5.907c.182.185.462.19.642.018a.487.487 0 00.02-.659l-4.71-5.12h22.043A.46.46 0 0026 7.346a.46.46 0 00-.454-.464H3.502l4.712-5.12z" fill="currentColor" stroke="currentColor"/></svg>
